X: 17398
T: High Road To Linton, The
R: reel
M: 4/4
K: Dmajor
|:cee(f a2) a(e|f2) fe {g}a2 a2|cee(f a2) ae|fae(c Bc)AB:|
|:cee(g fd)df|ecce fB (B2|c)ee(g fd)df|eca(c Bc)AB:|

